ix/refresh-square-2_bulk.svg

<svg viewBox="0 0 24 24" fill="none" xmlns="http://www.w3.org/2000/svg" height="1em" width="1em">
  <path opacity="0.4" d="M16.19 2H7.82001C4.17001 2 2 4.17 2 7.81V16.18C2 19.82 4.17 21.99 7.81 21.99H16.18C19.82 21.99 21.99 19.82 21.99 16.18V7.81C22 4.17 19.83 2 16.19 2Z" fill="#292D32"/>
  <path d="M18.0004 11.27C17.5804 11.27 17.2504 11.6 17.2504 12.02C17.2404 13.42 16.7004 14.73 15.7204 15.71C14.7304 16.7 13.4104 17.25 12.0104 17.25C10.6104 17.25 9.29038 16.7 8.30038 15.71C8.27038 15.68 8.2504 15.65 8.2204 15.62H9.05038C9.46038 15.62 9.80038 15.28 9.80038 14.87C9.80038 14.46 9.46038 14.12 9.05038 14.12H6.40039C5.99039 14.12 5.65039 14.46 5.65039 14.87V17.52C5.65039 17.93 5.99039 18.27 6.40039 18.27C6.81039 18.27 7.15039 17.93 7.15039 17.52V16.67C7.18039 16.7 7.21039 16.74 7.24039 16.78C8.51039 18.05 10.2104 18.76 12.0104 18.76C13.8104 18.76 15.5104 18.06 16.7804 16.78C18.0404 15.52 18.7404 13.83 18.7504 12.03C18.7504 11.61 18.4104 11.28 18.0004 11.27Z" fill="#292D32"/>
  <path d="M6.00022 12.65C6.41022 12.65 6.74022 12.32 6.75022 11.91C6.77022 10.54 7.32022 9.25 8.28022 8.28C9.27022 7.29 10.5902 6.74 11.9902 6.74C13.3902 6.74 14.7102 7.29 15.7002 8.28C15.7302 8.31 15.7502 8.34 15.7802 8.37H14.9502C14.5402 8.37 14.2002 8.71 14.2002 9.12C14.2002 9.53 14.5402 9.87 14.9502 9.87H17.6002C18.0102 9.87 18.3502 9.53 18.3502 9.12V6.48C18.3502 6.07 18.0102 5.73 17.6002 5.73C17.1902 5.73 16.8502 6.07 16.8502 6.48V7.34C16.8202 7.31 16.7902 7.27 16.7602 7.23C15.4902 5.96 13.7902 5.25 11.9902 5.25C10.1902 5.25 8.49022 5.95 7.22022 7.23C5.97022 8.47 5.27022 10.13 5.25022 11.89C5.24022 12.3 5.57021 12.64 5.99021 12.65C6.00021 12.65 6.00022 12.65 6.00022 12.65Z" fill="#292D32"/>
</svg>

<svg viewBox="0 0 24 24" fill="none" xmlns="http://www.w3.org/2000/svg" height="1em" width="1em">
  <path opacity=".4" d="M16.19 2H7.82C4.17 2 2 4.17 2 7.81v8.37c0 3.64 2.17 5.81 5.81 5.81h8.37c3.64 0 5.81-2.17 5.81-5.81V7.81C22 4.17 19.83 2 16.19 2Z" fill="#292D32"/>
  <path d="M18 11.27c-.42 0-.75.33-.75.75a5.23 5.23 0 0 1-1.53 3.69 5.22 5.22 0 0 1-3.71 1.54c-1.4 0-2.72-.55-3.71-1.54-.03-.03-.05-.06-.08-.09h.83c.41 0 .75-.34.75-.75s-.34-.75-.75-.75H6.4c-.41 0-.75.34-.75.75v2.65c0 .41.34.75.75.75s.75-.34.75-.75v-.85c.03.03.06.07.09.11a6.719 6.719 0 0 0 4.77 1.98c1.8 0 3.5-.7 4.77-1.98a6.73 6.73 0 0 0 1.97-4.75c0-.42-.34-.75-.75-.76ZM6 12.65c.41 0 .74-.33.75-.74.02-1.37.57-2.66 1.53-3.63a5.22 5.22 0 0 1 3.71-1.54c1.4 0 2.72.55 3.71 1.54.03.03.05.06.08.09h-.83c-.41 0-.75.34-.75.75s.34.75.75.75h2.65c.41 0 .75-.34.75-.75V6.48c0-.41-.34-.75-.75-.75s-.75.34-.75.75v.86c-.03-.03-.06-.07-.09-.11a6.719 6.719 0 0 0-4.77-1.98c-1.8 0-3.5.7-4.77 1.98a6.64 6.64 0 0 0-1.97 4.66c-.01.41.32.75.74.76H6Z" fill="#292D32"/>
</svg>
